X: 10
T:D-Dur-Lndler #27
M:3/4
L:1/8
S:j.m. schmalnauer: "tanz musik", bhlau, wien 1996 (compa bd. 5) 
C:trad
R:Lndler
N:halbe Applikatur
K:D
de|fdB2d2|c2 efge|d2 [A2c2][A2c2]|e2 dfag
|fdB2d2|c2 efge|d2 [A2c2][A2c2]|d4   :|
|:df|afdfFf|cegAgb|geGecA|FdfAdf
|afdfFf|cegAgb|geGecA|d4  :|
